usr/share/icons/biglinux-icons-material/scalable/apps/reload.svg

<?xml version="1.0" encoding="UTF-8" standalone="no"?>
<svg
   width="24"
   height="24"
   viewBox="0 0 6.349875 6.349875"
   version="1.1"
   id="svg3"
   sodipodi:docname="btsync-user.svg"
   inkscape:version="1.3 (0e150ed6c4, 2023-07-21)"
   xmlns:inkscape="http://www.inkscape.org/namespaces/inkscape"
   xmlns:sodipodi="http://sodipodi.sourceforge.net/DTD/sodipodi-0.dtd"
   xmlns="http://www.w3.org/2000/svg"
   xmlns:svg="http://www.w3.org/2000/svg">
  <defs
     id="defs3" />
  <sodipodi:namedview
     id="namedview3"
     pagecolor="#ffffff"
     bordercolor="#000000"
     borderopacity="0.25"
     inkscape:showpageshadow="2"
     inkscape:pageopacity="0.0"
     inkscape:pagecheckerboard="0"
     inkscape:deskcolor="#d1d1d1"
     inkscape:zoom="4.4801844"
     inkscape:cx="-36.828841"
     inkscape:cy="25.556984"
     inkscape:window-width="2560"
     inkscape:window-height="998"
     inkscape:window-x="0"
     inkscape:window-y="0"
     inkscape:window-maximized="1"
     inkscape:current-layer="svg3" />
  <path
     d="m 2.5380665,0.29490713 c 0.031749,0 0.062088,-0.004233 0.091015,-0.012347 0.3802866,-0.0250468 0.7605735,-0.0236357 1.1398022,0.002822 C 4.1131882,0.31289845 4.4465566,0.38733309 4.769342,0.50974457 5.3052008,0.73022634 5.6717297,1.1133355 5.8703397,1.6576609 5.9818153,1.9857377 6.0491945,2.3233394 6.070008,2.6690548 6.0975242,3.1047268 6.0879993,3.5386349 6.0396697,3.9728959 6.0026288,4.2773371 5.9239609,4.5694313 5.8026078,4.8505897 5.5778927,5.3384717 5.2127749,5.6746623 4.7086654,5.8591614 4.3005095,5.9970948 3.8803595,6.0701184 3.4475097,6.0771739 2.9624497,6.1032788 2.4816231,6.0658852 2.0050298,5.9681676 1.1298053,5.7737909 0.58830208,5.2393431 0.38440054,4.3655297 0.29761892,3.9728959 0.25740304,3.5746176 0.26586954,3.172106 0.25634473,2.7449005 0.30149939,2.3219283 0.40239185,1.9056587 0.61722929,1.0900526 1.1354497,0.58417922 1.9567001,0.38874417 2.1482547,0.34182566 2.3426314,0.31007628 2.5380665,0.29490713 Z"
     style="fill:#f2f2f2;fill-opacity:1;fill-rule:evenodd;stroke:none;stroke-width:0.352771"
     id="path4714" />
  <g
     id="g5"
     transform="matrix(0.38259374,0,0,0.38259374,6.0091564,-0.06283509)"
     style="stroke-width:2.61374">
    <path
       d="m -7.556688,3.97 a 4.498,4.498 0 0 0 -3.032,1.313 4.498,4.498 0 0 0 -0.367,5.935 l 0.945,-0.945 a 3.175,3.175 0 0 1 0.358,-4.054 3.175,3.175 0 0 1 3.303001,-0.744 V 6.611 L -4.6526885,4.914 A 4.498,4.498 0 0 0 -7.556688,3.97 Z"
       fill="#4c8fd8"
       id="path4"
       style="stroke-width:2.61374;paint-order:stroke markers fill" />
    <path
       d="m -3.8596885,5.709 -0.945,0.945 a 3.175,3.175 0 0 1 -0.359,4.054 3.175,3.175 0 0 1 -3.3029995,0.744 v -1.137 l -1.122,1.123 -0.574999,0.574 a 4.498,4.498 0 0 0 5.9359985,-0.368 4.498,4.498 0 0 0 0.368,-5.935 z"
       fill="#6ddce7"
       id="path5"
       style="stroke-width:2.61374;paint-order:stroke markers fill" />
  </g>
</svg>

<svg xmlns="http://www.w3.org/2000/svg" width="24" height="24" viewBox="0 0 6.35 6.35"><path d="M2.538.295A.335.335 0 0 0 2.63.283c.38-.025.76-.024 1.14.002a3.62 3.62 0 0 1 1 .225c.536.22.903.603 1.101 1.148.112.328.18.665.2 1.011.028.436.018.87-.03 1.304a3.166 3.166 0 0 1-.237.878c-.225.487-.59.824-1.094 1.008a4.125 4.125 0 0 1-1.261.218 5.644 5.644 0 0 1-1.443-.109C1.13 5.774.588 5.24.385 4.366a5.025 5.025 0 0 1-.12-1.194c-.009-.427.036-.85.137-1.266C.617 1.09 1.135.584 1.957.389c.191-.047.386-.079.581-.094Z" style="fill:#f2f2f2;fill-opacity:1;fill-rule:evenodd;stroke:none;stroke-width:.352771"/><g style="stroke-width:2.61374"><path fill="#4c8fd8" d="M-7.557 3.97a4.498 4.498 0 0 0-3.032 1.313 4.498 4.498 0 0 0-.367 5.935l.945-.945a3.175 3.175 0 0 1 .358-4.054 3.175 3.175 0 0 1 3.303-.744v1.136l1.697-1.697a4.498 4.498 0 0 0-2.904-.944Z" style="stroke-width:2.61374;paint-order:stroke markers fill" transform="matrix(.3826 0 0 .3826 6.01 -.063)"/><path fill="#6ddce7" d="m-3.86 5.709-.945.945a3.175 3.175 0 0 1-.359 4.054 3.175 3.175 0 0 1-3.303.744v-1.137l-1.122 1.123-.575.574a4.498 4.498 0 0 0 5.936-.368 4.498 4.498 0 0 0 .368-5.935z" style="stroke-width:2.61374;paint-order:stroke markers fill" transform="matrix(.3826 0 0 .3826 6.01 -.063)"/></g></svg>
